X:311
T:The Happy Conclusion
C:John Young, 1727
L:1/4
M:2/2
S:Colin Hume's website,  colinhume.com  - chords can also be printed below the stave.
Q:1/2=100
K:G
P:A
|: G/A/ | "G"BB B/A/B/c/ | "D"AA AB | "D7"cc c/B/c/d/ | "G"B3 B/c/ |\
"G"dd "G7"de/d/ | "C"cc cd/c/ | "G/D"B/A/G/A/ "D7"A>G | "G"G3 :|
P:B
|: B/c/ | "G"dd "G7"d/e/=f | "C"ec2 G/A/ | "G"BB/c/ "Em"dc/B/ | "D"A3 A/B/ |\
"Am"ce2d/c/ | "G"B/c/d "C"e/f/g | "D"f/e/d/g/ "D7"af | "G"g3 :|

